X: 9022
T: Da Boannie Polka
R: barndance
M: 4/4
K: Dmajor
F2 A>F G2 B>G|A2 f2 f>a (3fed|1 A2 e2 e>fe>c|A2 d2 d>cB>A:|
[2 A2 e2 e>f (3gfe|d2 c2 d2||
B2 G2 G>d (3dcB|A2 F2 F>D (3FGA|G2 E2 E>FG>E|F2 D2 D>Fd>c|
B2 G2- G>dc>B|A2 f2 f>^ef>a|g2 e2 e>dc>e|d2 f2 d2||

